;FLAVOR:Marlin
;TIME:14245
;Filament used: 16.609m
;Layer height: 0.28
;Cura Time Estimate:  14245sec = 3hr 57min 25sec 
M117 ET 3hr 57min
;MINX:75.74
;MINY:75.25
;MINZ:0.28
;MAXX:159.256
;MAXY:159.75
;MAXZ:164.92
;TARGET_MACHINE.NAME:Creality Ender-3
;POSTPROCESSED
;  [DisplayInfoOnLCD]
;  [CreateThumbnail]
;Generated with Cura_SteamEngine 5.7.2
;
;

M140 S50
M105
M190 S50
M104 S200
M105
M109 S200
M82 ;absolute extrusion mode
; Ender 3 Custom Start G-code
G92 E0 ; Reset Extruder
G28 ; Home all axes
G1 Z2.0 F3000 ; Move Z Axis up little to prevent scratching of Heat Bed
G1 X0.1 Y20 Z0.3 F5000.0 ; Move to start position
G1 X0.1 Y200.0 Z0.3 F1500.0 E15 ; Draw the first line
G1 X0.4 Y200.0 Z0.3 F5000.0 ; Move to side a little
G1 X0.4 Y20 Z0.3 F1500.0 E30 ; Draw the second line
G92 E0 ; Reset Extruder
G1 Z2.0 F3000 ; Move Z Axis up little to prevent scratching of Heat Bed
G1 X5 Y20 Z0.3 F5000.0 ; Move over to prevent blob squish
G92 E0
G92 E0
G1 F2700 E-5
;LAYER_COUNT:589
;LAYER:0
M117 1/589 | ET 3h57m
M107
G0 F6000 X84.231 Y79.015 Z0.28
;TYPE:SKIRT
G1 F2700 E0
G1 F1200 X84.956 Y78.263 E0.04864
G1 X85.692 Y77.626 E0.09396
G1 X86.424 Y77.096 E0.13605
G1 X87.321 Y76.561 E0.18468
G1 X88.199 Y76.14 E0.23002
G1 X89.112 Y75.798 E0.27542
G1 X90.049 Y75.539 E0.32068
G1 X91.016 Y75.361 E0.36647
G1 X92.155 Y75.265 E0.41969
G1 X92.812 Y75.25 E0.45029
G1 X141.804 Y75.25 E2.73157
G1 X142.684 Y75.263 E2.77255
G1 X143.656 Y75.322 E2.81789
G1 X144.619 Y75.468 E2.86324
G1 X145.566 Y75.699 E2.90863
G1 X146.454 Y75.999 E2.95228
G1 X147.346 Y76.389 E2.99761
G1 X148.229 Y76.876 E3.04456
G1 X148.98 Y77.378 E3.08663
G1 X149.795 Y78.036 E3.1354
G1 X150.493 Y78.714 E3.18071
G1 X151.129 Y79.451 E3.22604
G1 X151.699 Y80.241 E3.2714
G1 X152.161 Y81.017 E3.31346
G1 X152.615 Y81.959 E3.36215
G1 X152.944 Y82.837 E3.40581
G1 X153.213 Y83.809 E3.45277
G1 X153.39 Y84.775 E3.4985
G1 X153.485 Y85.905 E3.5513
G1 X153.5 Y86.58 E3.58274
G1 X153.499 Y105.677 E4.47198
G1 X153.487 Y106.432 E4.50714
G1 X153.429 Y107.407 E4.55262
G1 X153.282 Y108.368 E4.59789
G1 X153.052 Y109.315 E4.64327
G1 X152.743 Y110.23 E4.68824
G1 X152.452 Y110.908 E4.72259
G1 X152.037 Y111.797 E4.76827
G1 X151.635 Y112.625 E4.81113
G1 X150.609 Y114.9 E4.92734
G1 X149.614 Y117.281 E5.0475
G1 X148.727 Y119.584 E5.16242
G1 X147.88 Y121.983 E5.28088
G1 X147.116 Y124.364 E5.39732
G1 X146.41 Y126.796 E5.51524
G1 X145.784 Y129.206 E5.63118
G1 X145.212 Y131.698 E5.75024
G1 X144.718 Y134.159 E5.86712
G1 X144.296 Y136.624 E5.98357
G1 X143.945 Y139.1 E6.10002
G1 X143.66 Y141.615 E6.21787
G1 X143.448 Y144.096 E6.33382
G1 X143.306 Y146.622 E6.45163
G1 X143.232 Y149.102 E6.56716
G1 X143.157 Y150.072 E6.61246
G1 X142.997 Y151.031 E6.65773
G1 X142.773 Y151.906 E6.69979
G1 X142.424 Y152.893 E6.74854
G1 X142.017 Y153.776 E6.79381
G1 X141.552 Y154.593 E6.83759
G1 X140.976 Y155.421 E6.88455
G1 X140.351 Y156.169 E6.92994
G1 X139.688 Y156.833 E6.97363
G1 X138.915 Y157.482 E7.02063
G1 X138.117 Y158.038 E7.06592
G1 X137.335 Y158.489 E7.10795
G1 X136.419 Y158.914 E7.15497
G1 X135.47 Y159.255 E7.20193
G1 X134.596 Y159.485 E7.24401
G1 X133.563 Y159.66 E7.2928
G1 X132.542 Y159.737 E7.34048
G1 X131.918 Y159.75 E7.36954
G1 X103.316 Y159.749 E8.70137
G1 X102.583 Y159.738 E8.7355
G1 X101.611 Y159.681 E8.78084
G1 X100.648 Y159.535 E8.82619
G1 X99.702 Y159.306 E8.87152
G1 X98.778 Y158.994 E8.91693
G1 X97.888 Y158.602 E8.96221
G1 X97.065 Y158.151 E9.00591
G1 X96.226 Y157.59 E9.05291
G1 X95.522 Y157.024 E9.09497
G1 X94.769 Y156.299 E9.14364
G1 X94.132 Y155.563 E9.18897
G1 X93.602 Y154.832 E9.23101
G1 X93.066 Y153.935 E9.27967
G1 X92.644 Y153.057 E9.32503
G1 X92.302 Y152.145 E9.37038
G1 X92.042 Y151.207 E9.41571
G1 X91.864 Y150.24 E9.46149
G1 X91.765 Y149.061 E9.51658
G1 X91.727 Y147.753 E9.57751
G1 X91.617 Y145.243 E9.6945
G1 X91.437 Y142.719 E9.81233
G1 X91.184 Y140.208 E9.92984
G1 X90.86 Y137.708 E10.04723
G1 X90.47 Y135.235 E10.1638
G1 X90.008 Y132.765 E10.28081
G1 X89.476 Y130.299 E10.39828
G1 X88.881 Y127.892 E10.51374
G1 X88.2 Y125.424 E10.63295
G1 X87.465 Y123.031 E10.74952
G1 X86.654 Y120.637 E10.86721
G1 X85.777 Y118.267 E10.98488
G1 X84.855 Y115.98 E11.0997
G1 X83.841 Y113.654 E11.21786
G1 X82.553 Y110.921 E11.35854
G1 X82.174 Y110.003 E11.40479
G1 X81.883 Y109.076 E11.45003
G1 X81.672 Y108.124 E11.49543
G1 X81.555 Y107.229 E11.53746
G1 X81.517 Y106.61 E11.56634
G1 X81.5 Y105.92 E11.59848
G1 X81.501 Y86.775 E12.48995
G1 X81.512 Y86.075 E12.52255
G1 X81.57 Y85.102 E12.56794
G1 X81.716 Y84.139 E12.61329
G1 X81.946 Y83.193 E12.65862
G1 X82.259 Y82.27 E12.70401
G1 X82.651 Y81.38 E12.74929
G1 X83.121 Y80.527 E12.79464
G1 X83.664 Y79.719 E12.83997
G1 X84.231 Y79.015 E12.88206
G0 F6000 X84.543 Y79.266
G1 F1200 X85.218 Y78.565 E12.92738
G1 X85.927 Y77.95 E12.97108
G1 X86.659 Y77.42 E13.01316
G1 X87.495 Y76.921 E13.0585
G1 X88.34 Y76.514 E13.10217
G1 X89.219 Y76.183 E13.1459
G1 X90.122 Y75.932 E13.18955
G1 X91.05 Y75.76 E13.23349
G1 X92.189 Y75.664 E13.28672
G1 X92.821 Y75.65 E13.31615
G1 X141.798 Y75.65 E15.59673
G1 X142.66 Y75.662 E15.63687
G1 X143.597 Y75.718 E15.68058
G1 X144.525 Y75.857 E15.72427
G1 X145.438 Y76.078 E15.76801
G1 X146.294 Y76.366 E15.81007
G1 X147.186 Y76.756 E15.8554
G1 X148.007 Y77.209 E15.89906
G1 X148.758 Y77.711 E15.94113
G1 X149.517 Y78.323 E15.98653
G1 X150.191 Y78.976 E16.03022
G1 X150.805 Y79.685 E16.0739
G1 X151.355 Y80.446 E16.11762
G1 X151.817 Y81.222 E16.15967
G1 X152.24 Y82.099 E16.20501
G1 X152.569 Y82.977 E16.24867
G1 X152.82 Y83.882 E16.2924
G1 X152.991 Y84.809 E16.33629
G1 X153.086 Y85.939 E16.3891
G1 X153.1 Y86.58 E16.41895
G1 X153.099 Y105.671 E17.30791
G1 X153.088 Y106.409 E17.34228
G1 X153.033 Y107.347 E17.38603
G1 X152.893 Y108.274 E17.42968
G1 X152.673 Y109.187 E17.47341
G1 X152.375 Y110.073 E17.51694
G1 X152.09 Y110.739 E17.55067
G1 X151.677 Y111.622 E17.59606
G1 X151.275 Y112.45 E17.63892
G1 X150.244 Y114.736 E17.75569
G1 X149.245 Y117.127 E17.87636
G1 X148.354 Y119.44 E17.99177
G1 X147.503 Y121.85 E18.11078
G1 X146.735 Y124.242 E18.22776
G1 X146.026 Y126.685 E18.34622
G1 X145.397 Y129.105 E18.46264
G1 X144.822 Y131.608 E18.58223
G1 X144.326 Y134.08 E18.69963
G1 X143.902 Y136.557 E18.81665
G1 X143.549 Y139.044 E18.93361
G1 X143.261 Y141.581 E19.05251
G1 X143.05 Y144.062 E19.16845
G1 X142.906 Y146.61 E19.28728
G1 X142.833 Y149.072 E19.40198
G1 X142.762 Y150.007 E19.44564
G1 X142.609 Y150.932 E19.4893
G1 X142.385 Y151.807 E19.53135
G1 X142.06 Y152.726 E19.57674
G1 X141.669 Y153.578 E19.62039
G1 X141.204 Y154.395 E19.66417
G1 X140.669 Y155.165 E19.70783
G1 X140.068 Y155.886 E19.75153
G1 X139.405 Y156.55 E19.79523
G1 X138.686 Y157.154 E19.83895
G1 X137.917 Y157.691 E19.88263
G1 X137.135 Y158.142 E19.92466
G1 X136.251 Y158.551 E19.97002
G1 X135.368 Y158.868 E20.0137
G1 X134.494 Y159.098 E20.05578
G1 X133.533 Y159.261 E20.10117
G1 X132.534 Y159.337 E20.14782
G1 X131.918 Y159.35 E20.17651
G1 X103.322 Y159.349 E21.50806
G1 X102.606 Y159.339 E21.54141
G1 X101.67 Y159.285 E21.58506
G1 X100.741 Y159.146 E21.6288
G1 X99.829 Y158.927 E21.67248
G1 X98.939 Y158.628 E21.71619
G1 X98.08 Y158.251 E21.75987
G1 X97.257 Y157.8 E21.80357
G1 X96.477 Y157.278 E21.84728
G1 X95.773 Y156.712 E21.88934
G1 X95.071 Y156.037 E21.93469
G1 X94.456 Y155.328 E21.97839
G1 X93.926 Y154.597 E22.02043
G1 X93.426 Y153.761 E22.06579
G1 X93.018 Y152.916 E22.10949
G1 X92.687 Y152.038 E22.15318
G1 X92.435 Y151.134 E22.19688
G1 X92.263 Y150.206 E22.24082
G1 X92.165 Y149.049 E22.29489
G1 X92.127 Y147.741 E22.35582
G1 X92.017 Y145.226 E22.47304
G1 X91.836 Y142.691 E22.59139
G1 X91.582 Y140.168 E22.70946
G1 X91.257 Y137.657 E22.82736
G1 X90.865 Y135.173 E22.94446
G1 X90.401 Y132.691 E23.06203
G1 X89.867 Y130.215 E23.17997
G1 X89.267 Y127.785 E23.29652
G1 X88.585 Y125.317 E23.41575
G1 X87.844 Y122.903 E23.53333
G1 X87.033 Y120.509 E23.65103
G1 X86.152 Y118.128 E23.76925
G1 X85.222 Y115.82 E23.88511
G1 X84.208 Y113.494 E24.00327
G1 X82.915 Y110.75 E24.14451
G1 X82.555 Y109.883 E24.18823
G1 X82.273 Y108.989 E24.23188
G1 X82.069 Y108.072 E24.27562
G1 X81.952 Y107.177 E24.31765
G1 X81.917 Y106.6 E24.34457
G1 X81.9 Y105.92 E24.37624
G1 X81.901 Y86.781 E25.26743
G1 X81.911 Y86.098 E25.29924
G1 X81.966 Y85.161 E25.34294
G1 X82.105 Y84.233 E25.38664
G1 X82.325 Y83.321 E25.43032
G1 X82.625 Y82.431 E25.47405
G1 X83.002 Y81.572 E25.51774
G1 X83.453 Y80.75 E25.56139
G1 X83.976 Y79.97 E25.60512
G1 X84.543 Y79.266 E25.64721
G0 F6000 X84.855 Y79.517
G1 F1200 X85.481 Y78.867 E25.68924
G1 X86.162 Y78.274 E25.73128
G1 X86.894 Y77.744 E25.77336
G1 X87.669 Y77.281 E25.8154
G1 X88.482 Y76.888 E25.85745
G1 X89.327 Y76.568 E25.89952
G1 X90.196 Y76.325 E25.94154
G1 X91.084 Y76.159 E25.9836
G1 X92.223 Y76.063 E26.03683
G1 X92.83 Y76.05 E26.0651
G1 X141.793 Y76.05 E28.34502
G1 X142.637 Y76.061 E28.38433
G1 X143.539 Y76.114 E28.4264
G1 X144.432 Y76.246 E28.46843
G1 X145.31 Y76.457 E28.51048
G1 X146.166 Y76.745 E28.55253
G1 X146.993 Y77.107 E28.59457
G1 X147.785 Y77.542 E28.63665
G1 X148.536 Y78.044 E28.67871
G1 X149.239 Y78.611 E28.72076
G1 X149.889 Y79.238 E28.76282
G1 X150.481 Y79.92 E28.80487
G1 X151.011 Y80.651 E28.84691
G1 X151.473 Y81.427 E28.88897
G1 X151.866 Y82.24 E28.93101
G1 X152.184 Y83.085 E28.97305
G1 X152.427 Y83.955 E29.01512
G1 X152.592 Y84.843 E29.05717
G1 X152.687 Y85.973 E29.10998
G1 X152.7 Y86.58 E29.13825
G1 X152.699 Y105.665 E30.02692
G1 X152.689 Y106.386 E30.0605
G1 X152.637 Y107.288 E30.10257
G1 X152.504 Y108.181 E30.14461
G1 X152.294 Y109.06 E30.18669
G1 X152.007 Y109.916 E30.22873
G1 X151.728 Y110.569 E30.2618
G1 X151.317 Y111.447 E30.30694
G1 X150.915 Y112.275 E30.3498
G1 X149.879 Y114.571 E30.46709
G1 X148.876 Y116.973 E30.5883
G1 X147.981 Y119.296 E30.70421
G1 X147.126 Y121.717 E30.82377
G1 X146.354 Y124.12 E30.9413
G1 X145.642 Y126.573 E31.06023
G1 X145.01 Y129.004 E31.17719
G1 X144.432 Y131.518 E31.29731
G1 X143.934 Y134.001 E31.41523
G1 X143.508 Y136.49 E31.53281
G1 X143.153 Y138.988 E31.6503
G1 X142.862 Y141.547 E31.77023
G1 X142.652 Y144.028 E31.88616
G1 X142.506 Y146.598 E32.00603
G1 X142.434 Y149.042 E32.11988
G1 X142.367 Y149.942 E32.1619
G1 X142.221 Y150.833 E32.20395
G1 X141.997 Y151.708 E32.246
G1 X141.696 Y152.56 E32.28808
G1 X141.321 Y153.381 E32.33011
G1 X140.875 Y154.167 E32.37219
G1 X140.361 Y154.909 E32.41422
G1 X139.784 Y155.604 E32.45628
G1 X139.147 Y156.244 E32.49833
G1 X138.457 Y156.826 E32.54036
G1 X137.717 Y157.344 E32.58242
G1 X136.935 Y157.795 E32.62446
G1 X136.115 Y158.175 E32.66654
G1 X135.266 Y158.481 E32.70856
G1 X134.392 Y158.711 E32.75064
G1 X133.502 Y158.862 E32.79268
G1 X132.525 Y158.937 E32.83831
G1 X131.918 Y158.95 E32.86658
G1 X103.327 Y158.949 E34.19789
G1 X102.629 Y158.94 E34.2304
G1 X101.728 Y158.889 E34.27242
G1 X100.834 Y158.757 E34.3145
G1 X99.956 Y158.548 E34.35652
G1 X99.099 Y158.261 E34.39861
G1 X98.272 Y157.9 E34.44063
G1 X97.479 Y157.467 E34.4827
G1 X96.728 Y156.966 E34.52473
G1 X96.024 Y156.4 E34.5668
G1 X95.373 Y155.774 E34.60885
G1 X94.78 Y155.093 E34.6509
G1 X94.25 Y154.362 E34.69294
G1 X93.786 Y153.587 E34.735
G1 X93.392 Y152.774 E34.77707
G1 X93.072 Y151.93 E34.8191
G1 X92.828 Y151.06 E34.86117
G1 X92.662 Y150.172 E34.90324
G1 X92.565 Y149.037 E34.95628
G1 X92.527 Y147.729 E35.01721
G1 X92.417 Y145.209 E35.13467
G1 X92.235 Y142.662 E35.25357
G1 X91.98 Y140.128 E35.37216
G1 X91.654 Y137.606 E35.49057
G1 X91.26 Y135.111 E35.60819
G1 X90.794 Y132.618 E35.72628
G1 X90.258 Y130.131 E35.84475
G1 X89.653 Y127.678 E35.96239
G1 X88.97 Y125.21 E36.08163
G1 X88.223 Y122.775 E36.20023
G1 X87.412 Y120.381 E36.31793
G1 X86.527 Y117.989 E36.43669
G1 X85.589 Y115.66 E36.5536
G1 X84.575 Y113.334 E36.67175
G1 X83.284 Y110.596 E36.81271
G1 X82.936 Y109.762 E36.85479
G1 X82.663 Y108.902 E36.8968
G1 X82.466 Y108.02 E36.93888
G1 X82.349 Y107.125 E36.98091
G1 X82.317 Y106.59 E37.00587
G1 X82.3 Y105.92 E37.03708
G1 X82.301 Y86.786 E37.92804
G1 X82.31 Y86.121 E37.95901
G1 X82.362 Y85.219 E38.00108
G1 X82.494 Y84.326 E38.04311
G1 X82.704 Y83.448 E38.08515
G1 X82.991 Y82.591 E38.12723
G1 X83.353 Y81.764 E38.16927
G1 X83.786 Y80.972 E38.2113
G1 X84.288 Y80.221 E38.25336
G1 X84.855 Y79.517 E38.29545
G1 F2700 E33.29545
;MESH:Flask Mount.STL
G0 F6000 X100.326 Y94.137
G0 X102.63 Y99.098
;TYPE:WALL-INNER
G1 F2700 E38.29545
G1 F1200 X102.143 Y99.078 E38.31815
G1 X101.663 Y98.976 E38.341
G1 X101.219 Y98.797 E38.36329
G1 X100.807 Y98.546 E38.38575
G1 X100.455 Y98.237 E38.40756
G1 X100.142 Y97.856 E38.43052
G1 X99.899 Y97.427 E38.45348
G1 X99.741 Y96.973 E38.47586
G1 X99.656 Y96.493 E38.49856
G1 X99.656 Y95.999 E38.52157
G1 X99.757 Y95.486 E38.54591
G1 X99.899 Y95.079 E38.56598
G1 X100.136 Y94.65 E38.58881
G1 X100.452 Y94.267 E38.61193
G1 X100.8 Y93.956 E38.63366
G1 X101.212 Y93.702 E38.6562
G1 X101.661 Y93.523 E38.6787
G1 X102.126 Y93.422 E38.70086
G1 X102.596 Y93.4 E38.72277
G1 X103.091 Y93.457 E38.74597
G1 X103.557 Y93.601 E38.76868
G1 X103.993 Y93.821 E38.79142
G1 X104.376 Y94.102 E38.81354
G1 X104.722 Y94.459 E38.83669
G1 X105.005 Y94.898 E38.86101
G1 X105.186 Y95.294 E38.88129
G1 X105.308 Y95.764 E38.9039
G1 X105.348 Y96.251 E38.92665
G1 X105.31 Y96.717 E38.94842
G1 X105.177 Y97.217 E38.97251
G1 X104.991 Y97.639 E38.99399
G1 X104.725 Y98.027 E39.01589
G1 X104.386 Y98.39 E39.03902
G1 X103.998 Y98.673 E39.06138
G1 X103.563 Y98.897 E39.08416
G1 X103.1 Y99.035 E39.10666
G1 X102.63 Y99.098 E39.12874
G1 F2700 E34.12874
G0 F6000 X103.081 Y99.14
G0 X104.846 Y98.164
G0 X130.332 Y98.37
G0 X132.14 Y99.076
G1 F2700 E39.12874
G1 F1200 X131.663 Y98.974 E39.15146
G1 X131.22 Y98.796 E39.17369
G1 X130.805 Y98.542 E39.19634
G1 X130.422 Y98.202 E39.22019
G1 X130.159 Y97.876 E39.23969
G1 X129.913 Y97.449 E39.26264
G1 X129.745 Y96.981 E39.28579
G1 X129.658 Y96.496 E39.30874
G1 X129.658 Y96.008 E39.33146
G1 X129.733 Y95.577 E39.35183
G1 X129.897 Y95.083 E39.37607
G1 X130.135 Y94.653 E39.39895
G1 X130.435 Y94.281 E39.42121
G1 X130.801 Y93.956 E39.444
G1 X131.212 Y93.702 E39.4665
G1 X131.661 Y93.523 E39.489
G1 X132.126 Y93.422 E39.51116
G1 X132.596 Y93.4 E39.53307
G1 X133.091 Y93.457 E39.55627
G1 X133.557 Y93.601 E39.57898
G1 X133.993 Y93.821 E39.60172
G1 X134.376 Y94.102 E39.62384
G1 X134.72 Y94.456 E39.64683
G1 X134.961 Y94.82 E39.66715
G1 X135.187 Y95.289 E39.6914
G1 X135.31 Y95.762 E39.71415
G1 X135.348 Y96.248 E39.73685
G1 X135.308 Y96.732 E39.75947
G1 X135.201 Y97.146 E39.77938
G1 X134.993 Y97.635 E39.80412
G1 X134.749 Y97.994 E39.82433
G1 X134.393 Y98.385 E39.84896
G1 X134 Y98.675 E39.8717
G1 X133.559 Y98.899 E39.89473
G1 X133.049 Y99.044 E39.91942
G1 X132.627 Y99.098 E39.93923
G1 X132.14 Y99.076 E39.96193
G1 F2700 E34.96193
G0 F6000 X132.634 Y99.28
G0 X132.634 Y105.449
G0 X131.648 Y148.148
G1 F2700 E39.96193
G1 F1200 X131.65 Y106.195 E41.91544
G1 X131.715 Y105.971 E41.9263
G1 X131.845 Y105.803 E41.93619
G1 X132.062 Y105.677 E41.94787
G1 X132.218 Y105.648 E41.95526
G1 X141.9 Y105.648 E42.4061
G1 X141.9 Y86.848 E43.2815
G1 X93.101 Y86.849 E45.55379
G1 X93.1 Y105.648 E46.42915
G1 X102.806 Y105.65 E46.8811
G1 X102.959 Y105.684 E46.8884
G1 X103.234 Y105.89 E46.9044
G1 X103.351 Y106.124 E46.91658
G1 X103.352 Y148.148 E48.8734
G1 X131.648 Y148.148 E50.19098
G0 F6000 X132.048 Y148.548
;TYPE:WALL-OUTER
G1 F1200 X132.053 Y106.199 E52.16292
G1 X132.139 Y106.079 E52.1698
G1 X132.229 Y106.048 E52.17423
G1 X142.3 Y106.048 E52.64318
G1 X142.3 Y86.448 E53.55584
G1 X92.701 Y86.449 E55.86537
G1 X92.7 Y106.048 E56.77798
G1 X102.77 Y106.048 E57.24689
G1 X102.868 Y106.084 E57.25175
G1 X102.949 Y106.208 E57.25864
G1 X102.952 Y148.548 E59.23017
G1 X132.048 Y148.548 E60.585
G1 F2700 E55.585
G0 F6000 X131.778 Y148.28
G0 X131.82 Y105.822
G0 X132.118 Y105.809
G0 X132.121 Y105.449
G0 X132.389 Y99.269
G0 X132.19 Y98.679
G1 F2700 E60.585
G1 F1200 X131.781 Y98.592 E60.60447
G1 X131.401 Y98.439 E60.62355
G1 X131.044 Y98.221 E60.64303
G1 X130.724 Y97.94 E60.66286
G1 X130.465 Y97.615 E60.68221
G1 X130.261 Y97.249 E60.70172
G1 X130.127 Y96.856 E60.72105
G1 X130.056 Y96.459 E60.73983
G1 X130.056 Y96.042 E60.75925
G1 X130.135 Y95.618 E60.77933
G1 X130.272 Y95.231 E60.79845
G1 X130.46 Y94.891 E60.81654
